!!!!SEGMENT: pl-wumfc--n53446--001-019_moniuszko-stanislaw--hrabina-no-15-piosnka-mysliwska.krn
!!!cenid: 18xx:4106
!!!COM: Moniuszko, Stanisław
!!!COM-rismID: pe30008351
!!!CDT: 1819/05/05-1872/06/04
!!!CNT: Polish
!!!OPR: Hrabina
!!!OTL: No. 15. Piosnka myśliwska
!!!OMV: 019
!!!PDT:
!!!AGN:
!!!YEC: Copyright 2022 Narodowy Instytut Fryderyka Chopina (https://polishscores.org)
!!!YEM: License CC-BY-4.0 (https://creativecommons.org/licenses/by/4.0)
!!!SMS-siglum: PL-Wumfc
!!!SMS-shelfmark: N53446
!!!SMS-shelfwork: 001-019 M
!!!SMS-variant:
!!!SMS-altvar:
!!!NIFC-rismSourceID: 1001165649
!!!NIFC-rismChildID: 1001165649
!!!NIFC-islandoraID: pl-wumfc:6884
!!!URL-pdf-islandora: https://repozytorium.nifc.pl/islandora/object/pl-wumfc%3A6884/datastream/PDF/view
!!!URL-scan: https://polish.musicsources.pl/pl/lokalizacje/galeria/druki-muzyczne/12579 @EN{Scan on Polish Music Sources Website} @PL{Skany w portalu Dziedzictwo Muzyki Polskiej w otwartym dostępie}
!!!IIIF:
!!!ONB-nifc:
!!!AIN: 1 piano
!!!key: B-
**kern	**kern	**text	**text	**text	**text	**text	**dynam
*part1	*part1	*	*	*	*	*	*
*staff2	*staff1	*	*	*	*	*	*
*I"[Piano.]	*I"[Piano.]	*v:1	*v:2	*v:3	*v:4	*v:5	*
*>A	*>A	*	*	*	*	*	*
*Ipiano	*Ipiano	*	*	*	*	*	*
*ICklav	*ICklav	*	*	*	*	*	*
*clefF4	*clefG2	*	*	*	*	*	*
*k[b-e-]	*k[b-e-]	*	*	*	*	*	*
*B-:	*B-:	*	*	*	*	*	*
*M2/4	*M2/4	*	*	*	*	*	*
!!LO:TX:B:a:t=Allegro.
!	!LO:TX:a:t=Róg myśliwski za sceną.	!	!	!	!	!	!
!	!LO:TX:t=P:problem:cały tekst zapisany ponad pięciolinią	!	!	!	!	!	!
8r	16d/LL	.	.	.	.	.	mf
.	16f/JJ	.	.	.	.	.	.
=1!|:	=1!|:	=1!|:	=1!|:	=1!|:	=1!|:	=1!|:	=1!|:
*>B	*>B	*	*	*	*	*	*
2r	[2f/	.	.	.	.	.	.
=2	=2	=2	=2	=2	=2	=2	=2
2r	2f/]	.	.	.	.	.	.
=3	=3	=3	=3	=3	=3	=3	=3
2rBB	4F</	.	.	.	.	.	.
.	4r	.	.	.	.	.	.
=4	=4	=4	=4	=4	=4	=4	=4
2ryy	4r	.	.	.	.	.	.
.	8r	.	.	.	.	.	.
.	16d/LL	.	.	.	.	.	.
.	16f/JJ	.	.	.	.	.	.
=5	=5	=5	=5	=5	=5	=5	=5
2ryy	[2f/	.	.	.	.	.	.
=6	=6	=6	=6	=6	=6	=6	=6
2ryy	2f/]	.	.	.	.	.	.
=7	=7	=7	=7	=7	=7	=7	=7
2rBB	4F</	.	.	.	.	.	.
.	8r	.	.	.	.	.	.
.	16d/LL	.	.	.	.	.	.
.	16f/JJ	.	.	.	.	.	.
=8	=8	=8	=8	=8	=8	=8	=8
2ryy	4.f/	.	.	.	.	.	.
.	16d/LL	.	.	.	.	.	.
.	16f/JJ	.	.	.	.	.	.
=9	=9	=9	=9	=9	=9	=9	=9
2ryy	8f/L	.	.	.	.	.	.
.	16d/L	.	.	.	.	.	.
.	16f/JJ	.	.	.	.	.	.
.	8f/L	.	.	.	.	.	.
.	16d/L	.	.	.	.	.	.
.	16f/JJ	.	.	.	.	.	.
=10	=10	=10	=10	=10	=10	=10	=10
2ryy	[2f/	.	.	.	.	.	.
=11	=11	=11	=11	=11	=11	=11	=11
2ryy	2f/]	.	.	.	.	.	.
=12	=12	=12	=12	=12	=12	=12	=12
2rBB	4F</	.	.	.	.	.	.
.	4r	.	.	.	.	.	.
=13	=13	=13	=13	=13	=13	=13	=13
2r;	2r;	.	.	.	.	.	.
!!LO:LB:g=original
=14	=14	=14	=14	=14	=14	=14	=14
!	!LO:TX:b:t=(Chór za sceną)	!	!	!	!	!	!
!	!LO:TX:t=P:problem:w t. 14-16 błędne wyświetlanie tekstu słownego	!	!	!	!	!	!
8FL 8D 8BB-\	8B-</	1. Po-	2. Aż	.	.	.	mf
!	!LO:TX:t=P:problem:błędne wyświetlanie łuku	!	!	!	!	!	!
8F 8D 8BB-\	(<16B-</LL	-je-	tu	.	.	.	.
.	16c</JJ	.	.	.	.	.	.
8F 8D 8BB-\	8B-<'/L)	-dzie-	le-	.	.	.	.
8FJ 8D 8BB-\	8A<'/J	-my	-ci	.	.	.	.
=15	=15	=15	=15	=15	=15	=15	=15
8E-L 8BB-\	8G<'/L	na	za-	.	.	.	.
8D 8BB-\	8F<'/	łów,	-jąc,	.	.	.	.
8E- 8BB-\	8G<'/	na	za-	.	.	.	.
8FJ 8C 8BB-\	8A<'/J	łów,	-jąc,	.	.	.	.
=16	=16	=16	=16	=16	=16	=16	=16
8FL 8D 8BB-\	8B-<'/L	to-	to-	.	.	.	<
8F 8BB-\	8c< 8A<'/	-wa-	-wa-	.	.	.	.
8F 8BB-\	8d< 8B-<'/	-rzy-	-rzy-	.	.	.	.
8FJ 8BB-\	8e-J 8c'>/	-szu	-szu	.	.	.	[[
=17	=17	=17	=17	=17	=17	=17	=17
[2BB-/	[2f [2d [2B-/	mój!	mój!	.	.	.	ff
=18	=18	=18	=18	=18	=18	=18	=18
4.BB-/]	4.f] 4.d] 4.B-/]	.	.	.	.	.	.
8r	8r	.	.	.	.	.	.
=19	=19	=19	=19	=19	=19	=19	=19
8F'\	8e- 8c'/	Na	Pusz-	.	.	.	.
4F^^\	4c 4A^^/	ło-	-czaj	.	.	.	.
8F\	8e- 8c/	-wy,	char-	.	.	.	.
=20	=20	=20	=20	=20	=20	=20	=20
8BB-\L	(16dLL 16B-/	hej!	-ty	.	.	.	.
.	16c 16A/	.	.	.	.	.	.
8F\	16d 16B-/	na	ze	.	.	.	.
.	16e-JJ 16c/	.	.	.	.	.	.
8D\	8fL 8B-/)	ło-	smy-	.	.	.	.
8BB-\J	8dJ 8B-'/	-wy,	-czą	.	.	.	.
=21	=21	=21	=21	=21	=21	=21	=21
8F\	8e- 8c/	do	Niech-	.	.	.	.
4F^\	4c 4A^>/	zie-	-że	.	.	.	.
8F\	8e- 8c/	-lo-	so-	.	.	.	.
!!LO:LB:g=original
=22	=22	=22	=22	=22	=22	=22	=22
8BB-\L	16dLL 16B-/	-nej	-bo-	.	.	.	.
.	16c 16A/	.	.	.	.	.	.
8F\	16d 16B-/	dą-	-la	.	.	.	.
.	16e-JJ 16c/	.	.	.	.	.	.
8D\	8fL 8B-/	-bro-	chwy-	.	.	.	.
8B-\J	8d/J	-wy	-cą	.	.	.	.
=23	=23	=23	=23	=23	=23	=23	=23
8.A^\L	8.c^>/L	to-	to-	.	.	.	.
16G\K	16B-/K	-wa-	-wa-	.	.	.	.
8F\	8A/	-rzy-	-rzy-	.	.	.	.
8C\J	8G/J	-szu	-szu	.	.	.	.
=24	=24	=24	=24	=24	=24	=24	=24
!	!LO:TX:t=P:problem:w t. 24-26 błędne wyświetlanie tekstu słownego	!	!	!	!	!	!
2FF;<\	2F<;>/	mój!	mój!	.	.	.	.
=25	=25	=25	=25	=25	=25	=25	=25
8.E-\L	8.G</L	to-	to-	.	.	.	.
16D\K	16F</K	-wa-	-wa-	.	.	.	.
8E- 8C\	8G</	-rzy-	-rzy-	.	.	.	.
8F\J	8A</J	-szu	-szu	.	.	.	.
=26	=26	=26	=26	=26	=26	=26	=26
4.D 4.BB-\	4.B-< 4.F</	mój!	mój!	.	.	.	.
8r	(16d/LL	.	.	.	.	.	.
.	16f/JJ)	.	.	.	.	.	.
=27:|!|:	=27:|!|:	=27:|!|:	=27:|!|:	=27:|!|:	=27:|!|:	=27:|!|:	=27:|!|:
*>C	*>C	*	*	*	*	*	*
2r	(2f/	.	.	.	.	.	.
=28	=28	=28	=28	=28	=28	=28	=28
2r	4F</)	.	.	.	.	.	.
.	8r	.	.	.	.	.	.
.	(16d/LL	.	.	.	.	.	.
.	16f/JJ)	.	.	.	.	.	.
=29	=29	=29	=29	=29	=29	=29	=29
2r	(8f/L	.	.	.	.	.	.
.	16d/L	.	.	.	.	.	.
.	16f/JJ)	.	.	.	.	.	.
.	(8f/L	.	.	.	.	.	.
.	16d/L	.	.	.	.	.	.
.	16f/JJ)	.	.	.	.	.	.
=30	=30	=30	=30	=30	=30	=30	=30
2r;	2f;/	.	.	.	.	.	.
*kcancel	*kcancel	*	*	*	*	*	*
!!LO:LB:g=original
=31||	=31||	=31||	=31||	=31||	=31||	=31||	=31||
*k[b-]	*k[b-]	*	*	*	*	*	*
!	!LO:TX:b:t=(Podczaszyc na scenie)	!	!	!	!	!	!
8A 8F\	8fL 8c/	.	.	Aż	A	A	p
8r	(16f/L	.	.	tu	te-	je-	.
.	16g/JJ)	.	.	.	.	.	.
8AL 8F'\	8fL 8c'/	.	.	le-	-raz	-śli	.
8AJ 8F'\	8eJ 8c'/	.	.	-ci	się	ci	.
=32	=32	=32	=32	=32	=32	=32	=32
8B-L 8F'\	8d'/L	.	.	pan-	dziel-	krzyw-	.
8A 8F'\	8c'/	.	.	-na,	-my,	-da,	.
8B- 8F'\	8d'/	.	.	pan-	dziel-	krzyw-	.
8B-J 8G 8F'\	8eJ 8c'/	.	.	-na,	-my,	-da,	.
=33	=33	=33	=33	=33	=33	=33	=33
8AL 8F'\	8fL 8c'/	.	.	to-	to-	to-	<
8c 8F'\	8g 8e'/	.	.	wa-	-wa-	-wa-	.
8c 8F'\	8a 8f'/	.	.	-rzy-	-rzy-	-rzy-	.
8cJ 8F'\	8b-J 8g'/	.	.	-szu	-szu	-szu	[[
=34	=34	=34	=34	=34	=34	=34	=34
4c 4F\	(4cc (4a/	.	.	mój!	mój!	mój!	>
8c\	8a 8f/))	.	.	.	.	.	]]
8r	8r	.	.	.	.	.	.
=35	=35	=35	=35	=35	=35	=35	=35
8C/	8b-L 8g'/	.	.	pusz-	to-	mo-	.
4c 4C^\	8g 8e^/	.	.	-czaj	-bie	-ja	.
.	8g 8e/	.	.	char-	za-	szab-	.
8c 8C'\	8b-J 8g 8e'/	.	.	-ty	-jąc	-la	.
=36	=36	=36	=36	=36	=36	=36	=36
8F'\L	8aL 8f/	.	.	ze	i	a	.
8c'\	8aJ 8f/	.	.	smy-	sar-	twoj	.
8A'\	8cc 8f/	.	.	-czą,	-na,	kij,	.
8F'\J	8r	.	.	.	.	.	.
=37	=37	=37	=37	=37	=37	=37	=37
8C/	8b-L 8g/	.	.	nie-	a	te-	.
4c 4C\	8g 8e/	.	.	-chaj	mnie	-raz-	.
.	8g 8e/	.	.	pan-	so-	-że	.
8c 8C\	8b-J 8g 8e/	.	.	-nę	-bol	się	.
!!LO:LB:g=original
=38	=38	=38	=38	=38	=38	=38	=38
8F\L	8aL 8f/	.	.	po-	i	ze	.
8c\	8aJ 8f/	.	.	-chwy-	pan-	mną	.
8A\	4cc 4a\	.	.	-cą	-na	bij	.
8F\J	.	.	.	.	.	.	.
=39	=39	=39	=39	=39	=39	=39	=39
4B-\	(4.dd 4.b-\	.	.	to-	to-	to-	.
4G\	.	.	.	.	.	.	.
.	8b- 8g/	.	.	-wa-	-wa-	-wa-	.
=40	=40	=40	=40	=40	=40	=40	=40
!	!LO:TX:t=P:problem:spiccato u dołu	!	!	!	!	!	!
4c\	4g 4e^^</	.	.	-rzy-	-rzy-	-rzy-	.
!	!LO:TX:t=P:problem:spiccato u dołu	!	!	!	!	!	!
4C/	4e 4c 4B-^^</	.	.	-szu	-szu	-szu	.
=41	=41	=41	=41	=41	=41	=41	=41
4.F;\	4.f 4.c 4.A;/)	.	.	mój!	mój!	mój!	.
=-	=-	=-	=-	=-	=-	=-	=-
*k[b-e-]	*k[b-e-]	*	*	*	*	*	*
!	!LO:TX:i:a:t=più lento	!	!	!	!	!	!
!	!LO:TX:b:t=(Chór za sceną)	!	!	!	!	!	!
8F 8D\	(>8f 8B-/	.	.	.	Hej!	.	p
=42	=42	=42	=42	=42	=42	=42	=42
4.E-^\	4.g 4.B-^>/	.	.	.	to-	.	.
8G 8C\	8e- 8B-/	.	.	.	-wa-	.	.
=43	=43	=43	=43	=43	=43	=43	=43
4F\	4c 4A/	.	.	.	-rzy-	.	.
!	!LO:TX:t=P:problem:błędne wyświetlanie tekstu słownego	!	!	!	!	!	!
4F 4E- 4FF\	4A</	.	.	.	-szu	.	.
=44	=44	=44	=44	=44	=44	=44	=44
*>C1	*>C1	*	*	*	*	*	*
!!LO:TX:t=P:problem:w źródle w tym miejscu oznaczenie "1. 2." (prima e seconda volta)
4.D 4.BB-;<\	4.B-< 4.F<;>/)	.	.	.	mój!	.	.
8r	(16d/LL	.	.	.	.	.	p
.	16f/JJ)	.	.	.	.	.	.
=45:|!	=45:|!	=45:|!	=45:|!	=45:|!	=45:|!	=45:|!	=45:|!
*>C3	*>C3	*	*	*	*	*	*
2D 2BB-;<\	2B-< 2F<;>/	.	.	.	mój!	.	.
==	==	==	==	==	==	==	==
*-	*-	*-	*-	*-	*-	*-	*-
!!!system-decoration: {(p1)}
!!!RDF**kern: > = above
!!!RDF**kern: < = below
!!!ENC: Berenika Jozajtis
!!!END: 2022-08-22
!!!ENC: Kamil Watkowski
!!!END: 2022-09-28
